X: 797
T: Polly Put The Kettle On
C:Emmet Lundy version
B: jims roots
M:2/4
L:1/8
Q: 1/4=100
K:D
V:1 
fg || "D"abag fdfa | "G"gfed "A (G)"cAfg | abaf gbag | fdec "D"defg |
abaf gbag | fded "A"cABc | "D"defd "G"efg2 | "A"fdec "D"d2AB |]
"D"defc d2ge | dfed BABc | dfec dege | "A"cABc "D"dABc |
dfed f2ge | fded cABc | dfec dege | "A"fdec "D"d2 |]
% abcbook-tune_id 6298c27949b530fb7ec3db51


% abcbook-boost 0
% abcbook-tablature 
% abcbook-transpose 
% abcbook-lastupdated 1654178426585
% abcbook-soundfonts 
% abcbook-repeats 1


